X:1
T:Title
%%score { 1 | 2 }
L:1/8
Q:1/4=106
M:4/4
K:Bb
V:1 treble nm="Grand Piano"
V:2 bass 
V:1
 D2 D2 D3 D | [CD]2 [CD]2 [CD]2 [CD]2 | [B,D]2 [B,D]2 [B,D]2 [B,G]2 | [B,F]4 [A,C]4 | D8 | %5
w: Leonard~C.~Voke * * *|||||
 F2 F2 F2 F2 | G2 G2 G2 G2 | G2 G2 A2 B2 | [Ec]4 [Ge]4 | [^Fd]8 | d2 =B2 A2 G2 | %11
w: ||||||
 [=Ec]2 [EA]2 [CG]2 [CF]2 | [DB]2 [DG]2 [DF]2 [DG]2 |[Q:1/4=100] F2 E2 B,2 C2 | %14
w: |||
 D2 [B,F]2 [B,G]2 [B,D]2 | [A,F]4 [A,C]4 | [B,D]8 |] %17
w: |||
V:2
 [B,,F,B,]2 [B,,F,B,]2 [B,,F,B,]3 [B,,F,B,] | [A,,^F,]2 [A,,F,]2 [A,,F,]2 [A,,F,]2 | %2
 [G,,G,]2 [G,,G,]2 [G,,G,]2 [B,,E,]2 | [F,,D,]4 [F,,F,]4 | [B,,F,B,]8 | %5
 [D,A,]2 [D,A,]2 [D,A,D]2 [D,A,D]2 | [G,B,D]2 [G,CD]2 [G,B,D]2 [G,B,D]2 | %7
 [E,B,E]2 [E,B,E]2 [E,G,E]2 [E,G,E]2 | [C,G,]4 [C,B,]4 | [D,A,]8 | %10
 [G,=B,F]2 [G,DF]2 [G,CF]2 [G,B,F]2 | [C,B,]2 [C,B,]2 [F,B,]2 [F,A,]2 | %12
 [B,,_A,]2 [B,,A,]2 [B,,A,]2 [B,,A,]2 | [E,_A,B,]2 [E,G,B,]2 [E,^F,]2 [E,F,B,]2 | %14
 [D,F,B,]2 [F,,D,]2 [F,,D,]2 [F,,F,]2 | [F,,C,]4 [F,,F,]4 | [B,,F,]8 |] %17

